X:1
T:The Waiting Isles
T:The Waiting Isles
T:Zella Beverlin
T:Arranged by Zella Beverlin, 1910
T:Public Domain Courtesy of the Cyber Hymnal™
T:Public Domain Courtesy of the Cyber Hymnal™
C:Zella Beverlin
Z:Public Domain
Z:Courtesy of the Cyber Hymnal™
%%score 1 ( 2 3 )
L:1/8
Q:1/4=140
M:3/4
K:Bb
V:1 treble 
V:2 bass 
V:3 bass 
V:1
 [DF]2 | [DF]2 [B,D]2 [CE]2 | [DF]2 [EG]2 [DF]2 | [DB]2 [DB]2 [Ec]2 | [DB]4 [FB]2 | %5
w: 1.~O|Sav- ior, we|pray Thee, send|out Thy sweet|light, Far|
w: 2.~In-|spire with Thy|pre- sence, O|Sav- ior di-|vine, Thy|
w: 3.~O|send now, we|pray Thee, some|her- ald of|Thine, Some|
 [GB]2 [EG]2 [GB]2 | [DF]2 [FB]2 [Fd]2 | [Fc]4 [EF]2 | [DF]2 [B,D]2 [CE]2 | [DF]2 [EG]2 [DF]2 | %10
w: o- ver the|wide heav- ing|sea; The|na- tions in|dark- ness are|
w: peo- ple who|know of Thy|love, That|forth to the|heath- en a-|
w: soul that with|peace Thou hast|blessed, O|bid Him go|forth to the|
 [DB]2 [DB]2 [Ec]2 | [Fd]4 [FB]2 | [EB]2 [EG]2 [GB]2 | [DF]2 [FB]2 [Fd]2 | [Ec]3 [EB] [Ec]2 | %15
w: long- ing for|day, The|is- lands, the|is- lands are|wait- ing for|
w: far may be|borne The|mess- age, the|mess- age of|grace from a-|
w: hea- then in|chains, And|tell them, and|tell them of|Je- sus and|
 [DB]4 ||"^Refrain" [DB]>[DB] | [Ec]2 [DB]2 [EA]2 | [DB]4 [DF]>[DF] | [CF]2 [DF]2 [EF]2 | %20
w: Thee.|||||
w: bove.|They are|wait- ing for|Thee, they are|wait- ing for|
w: rest.|||||
 [DF]4 [FB]>[FB] | [GB]2 [EG]2 [GB]2 | [EB]2 [EG]2 [GB]>[EG] | [DF]2 [FB]2 [Fd]2 | [Ec]4 [EF]2 | %25
w: |||||
w: Thee, In the|hour of their|sad- ness they are|wait- ing for|Thee; O|
w: |||||
 [DF]2 [B,D]2 [CE]2 | [DF]2 [EG]2 [DF]2 | [DB]2 [DB]2 [Ec]2 | [Fd]4 [FB]2 | [EB]2 [EG]2 [GB]2 | %30
w: |||||
w: Sav- ior, we|pray Thee, send|out Thy sweet|light, The|is- lands, the|
w: |||||
 [DF]2 [FB]2 [Fd]2 | [Ec]3 [EB] [Ec]2 | [DB]4 |] %33
w: |||
w: is- lands are|wait- ing for|Thee.|
w: |||
V:2
 [B,,B,]2 | [B,,B,]2 [B,,F,]2 [B,,F,]2 | [B,,B,]2 [B,,B,]2 [B,,B,]2 | [B,,F,]2 [B,,F,]2 [B,,F,]2 | %4
 [B,,F,]4 [D,B,]2 | [E,B,]2 [E,B,]2 [E,B,]2 | [F,B,]2 [F,D]2 [F,B,]2 | [F,A,]4 [F,A,]2 | %8
 [B,,B,]2 [B,,F,]2 [B,,F,]2 | [B,,B,]2 [B,,B,]2 [B,,B,]2 | [B,,F,]2 [B,,F,]2 [F,A,]2 | %11
 B,4 [D,B,]2 | [E,G,]2 [E,B,]2 [E,B,]2 | [F,B,]2 [F,D]2 [F,B,]2 | [F,A,]3 [F,B,] [F,A,]2 | %15
 [B,,B,]4 || B,>B, | [F,A,]2 [F,B,]2 [F,C]2 | B,4 [B,,B,]>[B,,B,] | [F,A,]2 [F,B,]2 [F,C]2 | %20
 B,4 [D,B,]>[D,B,] | [E,B,]2 [E,B,]2 [E,B,]2 | [E,G,]2 [E,B,]2 [E,E]>[E,B,] | %23
 [F,B,]2 [F,D]2 [F,B,]2 | [F,A,]4 [F,A,]2 | [B,,B,]2 [B,,F,]2 [B,,F,]2 | %26
 [B,,B,]2 [B,,B,]2 [B,,B,]2 | [B,,F,]2 [B,,F,]2 [F,A,]2 | B,4 [D,B,]2 | [E,G,]2 [E,B,]2 [E,B,]2 | %30
 [F,B,]2 [F,D]2 [F,B,]2 | [F,A,]3 [F,B,] [F,A,]2 | [B,,B,]4 |] %33
V:3
 x2 | x6 | x6 | x6 | x6 | x6 | x6 | x6 | x6 | x6 | x6 | B,4 x2 | x6 | x6 | x6 | x4 || B,>B, | x6 | %18
 B,4 x2 | x6 | B,4 x2 | x6 | x6 | x6 | x6 | x6 | x6 | x6 | B,4 x2 | x6 | x6 | x6 | x4 |] %33

